X:1
T:Preludio No. 11
T:Preludio No. 11
T:En ré mayor
T:Francisco Tárrega (1852 - 1909)
C:Francisco Tárrega
%%score ( 1 2 3 )
L:1/8
Q:1/4=60
M:2/4
K:D
V:1 treble-8 nm="Classical Guitar" snm="Guit."
V:2 treble-8 
V:3 treble-8 
V:1
"^Lento" f'2 e'2 | d'2"_XII" (3dfb | a2 e2 | (3dFB z2 | (3CGA (3A,GA | (3(DF)A (3d(fa) | b2 c'2 | %7
"^VII" d'2 b2 | (3[Afa][Afb][Afa] (3[Adf][Adg][Adf] | (3[FAd][FAe][FAd] [^E^GB]2- | %10
 [EGB]2 [=E=Gc]2 | [FAd]4 |] %12
V:2
 (3f'fa (3e'g"^X"a | (3d'fa x2 | (3z cg (3eAc | B,2 (3(D,F,)B, | C2 A,2 | x4 | (3z GB (3z ef | %7
 (3z df (3z d^e | A,2 A,2 | A,2 A,2- | A,2 A,2 | D,4 |] %12
V:3
 D2 A,2 | D2 d2 | A,4 | x4 | x4 | x4 | G,2 ^A2 | B2 ^G2 | x4 | x4 | x4 | x4 |] %12

